svg/u1f51d.svg

<svg viewBox="0 0 128 128" xmlns="http://www.w3.org/2000/svg">
  <g>
    <path d="M116,4H12c-4.42,0-8,3.58-8,8v104c0,4.42,3.58,8,8,8h104c4.42,0,8-3.58,8-8V12 C124,7.58,120.42,4,116,4z" fill="#427687"/>
    <path d="M109.7,4H11.5C7.37,4.03,4.03,7.37,4,11.5v97.9c-0.01,4.14,3.34,7.49,7.48,7.5c0.01,0,0.01,0,0.02,0 h98.1c4.14,0.01,7.49-3.34,7.5-7.48c0-0.01,0-0.01,0-0.02V11.5c0.09-4.05-3.13-7.41-7.18-7.5C109.85,4,109.77,4,109.7,4z" fill="#8CAFBF"/>
    <path d="M91,41.4l-24-24c-1.46-1.66-3.99-1.82-5.65-0.35c-0.13,0.11-0.24,0.23-0.35,0.35l-24,24 c-1.44,1.68-1.24,4.2,0.44,5.64c0.71,0.61,1.62,0.95,2.56,0.96h14c1.1,0,2,0.9,2,2v22c0,2.21,1.79,4,4,4h8c2.21,0,4-1.79,4-4V50 c0-1.1,0.9-2,2-2h14c2.21-0.02,3.98-1.83,3.96-4.04C91.95,43.02,91.61,42.11,91,41.4z" fill="#FAFAFA"/>
    <path d="M39.7,12.9c0-2.3-1.6-3-10.8-2.7c-7.7,0.3-11.5,1.2-13.8,4 s-2.9,8.5-3,15.3c0,4.8,0,9.3,2.5,9.3c3.4,0,3.4-7.9,6.2-12.3C26.2,17.8,39.7,15.9,39.7,12.9z" opacity="0.5" fill="#B4E1ED" enable-background="new "/>
  </g>
  <g>
    <path d="M37.37,111.67h-5.9V88.74H23.9v-4.91h21.02v4.91h-7.56V111.67z" fill="#FAFAFA"/>
    <path d="M76.05,97.71c0,4.61-1.14,8.15-3.43,10.63s-5.56,3.71-9.83,3.71s-7.54-1.24-9.83-3.71 s-3.43-6.03-3.43-10.66s1.15-8.17,3.44-10.62c2.29-2.44,5.58-3.67,9.85-3.67s7.55,1.23,9.82,3.69 C74.92,89.55,76.05,93.09,76.05,97.71z M55.73,97.71c0,3.11,0.59,5.45,1.77,7.03s2.95,2.36,5.29,2.36c4.71,0,7.07-3.13,7.07-9.39 c0-6.27-2.34-9.41-7.03-9.41c-2.35,0-4.12,0.79-5.31,2.37C56.33,92.26,55.73,94.6,55.73,97.71z" fill="#FAFAFA"/>
    <path d="M102.03,92.51c0,3-0.94,5.29-2.81,6.88c-1.87,1.59-4.54,2.38-7.99,2.38H88.7v9.9h-5.9V83.83h8.89 c3.38,0,5.95,0.73,7.7,2.18C101.15,87.46,102.03,89.63,102.03,92.51z M88.7,96.93h1.94c1.82,0,3.17-0.36,4.08-1.08 c0.9-0.72,1.35-1.76,1.35-3.13c0-1.38-0.38-2.41-1.13-3.07C94.18,89,93,88.67,91.38,88.67H88.7V96.93z" fill="#FAFAFA"/>
  </g>
</svg>

<svg viewBox="0 0 128 128" xmlns="http://www.w3.org/2000/svg">
  <defs/>
  <path d="M116,4 L12,4 C7.58,4 4,7.58 4,12 L4,116 C4,120.42 7.58,124 12,124 L116,124 C120.42,124 124,120.42 124,116 L124,12 C124,7.58 120.42,4 116,4 Z" fill="#427687"/>
  <path d="M109.7,4 L11.5,4 C7.37,4.03 4.03,7.37 4,11.5 L4,109.4 C3.99,113.54 7.34,116.89 11.48,116.9 C11.49,116.9 11.49,116.9 11.5,116.9 L109.6,116.9 C113.74,116.91 117.09,113.56 117.1,109.42 C117.1,109.41 117.1,109.41 117.1,109.4 L117.1,11.5 C117.19,7.45 113.97,4.09 109.92,4 C109.85,4 109.77,4 109.7,4 Z" fill="#8CAFBF"/>
  <path d="M91,41.4 L67,17.4 C65.54,15.74 63.01,15.58 61.35,17.05 C61.22,17.16 61.11,17.28 61,17.4 L37,41.4 C35.56,43.08 35.76,45.6 37.44,47.04 C38.15,47.65 39.06,47.99 40,48 L54,48 C55.1,48 56,48.9 56,50 L56,72 C56,74.21 57.79,76 60,76 L68,76 C70.21,76 72,74.21 72,72 L72,50 C72,48.9 72.9,48 74,48 L88,48 C90.21,47.98 91.98,46.17 91.96,43.96 C91.95,43.02 91.61,42.11 91,41.4 Z" fill="#FAFAFA"/>
  <path d="M39.7,12.9 C39.7,10.6 38.1,9.9 28.9,10.2 C21.2,10.5 17.4,11.4 15.1,14.2 C12.8,17 12.2,22.7 12.1,29.5 C12.1,34.3 12.1,38.8 14.6,38.8 C18,38.8 18,30.9 20.8,26.5 C26.2,17.8 39.7,15.9 39.7,12.9 Z" fill="#B4E1ED" opacity="0.5"/>
  <path d="M37.37,111.67 L31.47,111.67 L31.47,88.74 L23.9,88.74 L23.9,83.83 L44.92,83.83 L44.92,88.74 L37.36,88.74 L37.36,111.67 Z" fill="#FAFAFA"/>
  <path d="M76.05,97.71 C76.05,102.32 74.91,105.86 72.62,108.34 C70.33,110.82 67.06,112.05 62.79,112.05 C58.52,112.05 55.25,110.81 52.96,108.34 C50.67,105.87 49.53,102.31 49.53,97.68 C49.53,93.05 50.68,89.51 52.97,87.06 C55.26,84.62 58.55,83.39 62.82,83.39 C67.09,83.39 70.37,84.62 72.64,87.08 C74.92,89.55 76.05,93.09 76.05,97.71 Z M55.73,97.71 C55.73,100.82 56.32,103.16 57.5,104.74 C58.68,106.32 60.45,107.1 62.79,107.1 C67.5,107.1 69.86,103.97 69.86,97.71 C69.86,91.44 67.52,88.3 62.83,88.3 C60.48,88.3 58.71,89.09 57.52,90.67 C56.33,92.26 55.73,94.6 55.73,97.71 Z" fill="#FAFAFA"/>
  <path d="M102.03,92.51 C102.03,95.51 101.09,97.8 99.22,99.39 C97.35,100.98 94.68,101.77 91.23,101.77 L88.7,101.77 L88.7,111.67 L82.8,111.67 L82.8,83.83 L91.69,83.83 C95.07,83.83 97.64,84.56 99.39,86.01 C101.15,87.46 102.03,89.63 102.03,92.51 Z M88.7,96.93 L90.64,96.93 C92.46,96.93 93.81,96.57 94.72,95.85 C95.62,95.13 96.07,94.09 96.07,92.72 C96.07,91.34 95.69,90.31 94.94,89.65 C94.18,89 93,88.67 91.38,88.67 L88.7,88.67 L88.7,96.93 Z" fill="#FAFAFA"/>
</svg>
